logos/logo-full.svg

<svg viewBox="0 0 741 176" fill="none" xmlns="http://www.w3.org/2000/svg">
  <path d="M632.187 0.283577C645.962 -0.0884235 659.745 -0.0944289 673.52 0.265571C677.159 2.85457 684.41 10.7306 687.661 14.2156C695.162 22.2606 702.576 30.3846 709.902 38.5886C717.347 46.8816 736.38 66.1256 740.558 75.3516C734.996 85.3566 717.87 102.801 709.515 111.76C705.549 116.132 700.114 115.809 694.634 115.897C682.98 116.085 671.229 115.808 659.577 115.724C665.182 102.86 676.703 89.9966 683.08 74.7276C676.274 62.0776 666.82 52.6876 658.142 41.7276C652.916 35.1276 629.775 10.2536 629.653 3.19758C630.26 1.50958 630.747 1.33958 632.187 0.283577Z" fill="#F60D07"/>
  <path d="M391.987 40.7826C398.253 40.5536 405.843 41.0016 412.505 40.8986L412.45 113.712C412.468 123.482 411.993 136.148 412.498 145.581C406.939 145.259 398.222 145.65 392.425 145.744C392.148 143.272 392.128 140.601 392.048 138.1C380.842 147.995 369.717 149.946 355.75 144.221C352.778 142.861 350.042 141.037 347.642 138.818C331.866 124.424 330.566 95.4696 345.086 79.8286C350.969 73.4166 359.196 69.6576 367.895 69.4086C378.108 69.0346 384.813 72.2246 392.175 79.0256C392.779 69.9356 392.266 50.2696 391.987 40.7826ZM377.649 129.625C383.355 128.33 387.057 126.082 390.318 120.942C393.696 115.534 394.762 108.997 393.274 102.797C390.682 92.0226 382.52 87.1496 371.862 87.7776C344.578 97.6236 354.997 130.93 377.649 129.625Z" fill="#09090b"/>
  <path d="M211.173 70.8436C246.5 65.5866 264.442 108.551 244.221 134.507C238.405 142.019 229.817 146.883 220.384 148.008C209.342 149.35 202.989 146.18 194.528 139.62L194.541 152.951C194.583 160.169 194.433 167.576 194.371 174.81C187.929 175.394 180.255 174.3 174.607 175.264C174.493 170.392 174.512 165.406 174.539 160.53C174.703 130.948 174.186 101.284 174.563 71.7096C181.664 72.0326 187.964 72.0426 195.083 71.9706C194.656 74.3376 194.354 76.9246 194.022 79.3236C200.984 73.9166 202.495 72.4466 211.173 70.8436ZM216.988 130.01C242.758 119.784 232.714 85.0606 208.428 88.6746C202.989 90.3596 198.821 93.7426 196.2 98.8196C193.27 104.539 192.781 111.202 194.845 117.288C198.287 127.64 206.51 131.915 216.988 130.01Z" fill="#09090b"/>
  <path d="M61.8168 41.7166C69.1868 41.6156 75.5299 42.0406 83.1949 41.7076C82.8459 51.4376 84.2469 144.402 82.2879 146.491L79.9579 146.539C74.0629 146.334 67.6889 146.217 61.8239 146.566C61.9809 132.315 61.9849 118.063 61.8339 103.812C48.7149 103.664 35.5959 103.618 22.4769 103.673C21.4459 110.878 22.7189 121.759 22.6709 129.445C22.6449 133.513 22.0669 142.912 22.5799 146.23C15.0579 146.516 7.52885 146.565 0.0038541 146.378C0.254854 141.864 0.234859 136.601 0.147859 132.039C-0.424141 102.076 0.902856 71.6166 0.124856 41.7126C7.34986 41.9586 14.8239 42.2816 22.0199 41.7676C21.8909 55.5326 22.6999 69.5136 22.5769 83.7856C35.8749 83.8506 48.5919 83.6036 61.9819 83.9856C62.0269 69.8956 61.9708 55.8056 61.8168 41.7166Z" fill="#09090b"/>
  <path d="M293.234 70.4007C299.07 69.8097 307.188 71.1987 312.383 73.9017C329.929 83.0287 331.697 98.6857 330.878 116.05C313.399 116.584 295.057 115.758 277.361 116.104C278.837 121.813 280.52 126.324 285.896 129.675C289.962 132.167 294.854 132.935 299.488 131.808C305.434 130.329 308.119 126.735 311.12 121.965C315.846 123.099 320.389 123.933 325.157 124.842C326.863 125.144 328.358 125.308 329.956 125.982C329.904 128.082 326.227 133.393 324.812 135.216C312.483 151.108 286.224 152.798 271.056 139.935C263.067 133.143 258.13 123.435 257.346 112.978C255.534 90.2297 270.251 72.0887 293.234 70.4007ZM277.62 100.74L294.777 100.715L311.512 100.632C308.414 91.9547 304.999 87.6417 295.198 86.9137C285.648 88.0647 281.237 91.7697 277.62 100.74Z" fill="#09090b"/>
  <path d="M611.891 69.4426C629.163 67.4006 646.274 82.9706 647.819 99.6636C648.272 104.553 648.028 110.235 647.952 115.18L594.864 114.806C596.128 119.363 596.983 122.316 600.419 125.939C603.508 129.249 607.79 131.189 612.316 131.328C618.894 131.49 623.448 128.241 628.028 124.091C632.047 125.837 636.401 128.019 640.392 129.913L645.955 132.429C637.165 142.122 632.28 145.245 618.577 146.907C580.515 151.524 561.423 108.71 584.544 80.8366C591.133 72.8926 601.281 69.8676 611.891 69.4426ZM595.811 99.8166L615.402 99.7226L629.308 99.7186C624.948 89.7986 621.077 85.0876 609.379 86.2466C601.22 88.6096 598.781 91.8286 595.811 99.8166Z" fill="#09090b"/>
  <path d="M88.4768 71.7756C96.1528 72.0806 103.217 72.0066 110.911 71.8966C117.521 87.6726 123.795 103.587 129.73 119.629C135.115 104.949 141.666 85.8366 147.951 71.8236C154.978 71.8686 162.005 71.9676 169.031 72.1206C163.111 88.2166 156.001 104.535 149.548 120.535C147.081 125.774 144.143 133.658 141.896 139.195L127.376 174.919C120.541 174.8 113.016 175.069 106.115 175.162L118.229 144.887C109.126 121.026 96.7988 95.1606 88.4768 71.7756Z" fill="#09090b"/>
  <path d="M557.011 70.8638C564.019 71.1508 571.471 70.9778 578.522 70.9208C575.697 79.5108 570.826 91.9618 567.352 100.348C561.448 115.386 555.652 130.466 549.962 145.587C543.251 145.376 535.749 145.605 528.818 145.469C522.791 129.942 516.857 114.379 511.018 98.7808C507.576 89.7598 503.442 80.0618 500.496 70.9558C506.42 71.1478 512.649 70.9978 518.597 70.9498C519.589 70.9198 520.572 70.8168 521.515 71.1818C523.388 71.9068 537.983 114.795 540.181 120.643C545.925 104.096 551.535 87.5018 557.011 70.8638Z" fill="#09090b"/>
  <path d="M457.433 69.8017C462.177 69.4917 464.868 69.7986 469.475 70.6316C469.605 76.9866 469.454 83.7686 469.414 90.1566C467.027 89.7896 464.614 89.6106 462.198 89.6216C447.699 89.5676 442.69 101.576 442.854 114.176C442.99 124.605 443.04 135.079 443.065 145.508C439.098 145.222 432.738 145.442 428.596 145.457C426.503 145.587 425.28 145.846 423.331 145.224C421.781 142.246 422.519 79.2537 422.528 70.9397C429.024 70.7807 436.377 70.9417 442.978 70.8837L443.066 79.5036C447.384 73.7526 450.422 71.2987 457.433 69.8017Z" fill="#09090b"/>
  <path d="M475.615 70.6387C482.433 70.7107 489.251 70.7357 496.069 70.7147C496.034 78.2517 496.303 144.298 495.914 145.207C489.142 145.253 482.371 145.422 475.604 145.716C476.145 138.237 475.939 129.468 475.944 121.867L475.615 70.6387Z" fill="#09090b"/>
  <path d="M483.389 38.8536C489.769 37.2926 496.198 41.2336 497.703 47.6266C499.207 54.0206 495.21 60.4146 488.803 61.8616C482.476 63.2916 476.179 59.3546 474.694 53.0406C473.208 46.7266 477.089 40.3956 483.389 38.8536Z" fill="#09090b"/>
</svg>

<svg xmlns="http://www.w3.org/2000/svg" fill="none" viewBox="0 0 741 176" shape-rendering="geometricPrecision"><title>Hypedrive</title><path fill="#E50914" d="M632 0H673L741 75 695 116H660L683 75Z"/><path fill="currentColor" d="M391.99 40.78c6.26-.23 13.85.22 20.51.12l-.05 72.81c.02 9.77-.46 22.44.05 31.87-5.56-.32-14.28.07-20.07.16-.28-2.47-.3-5.14-.38-7.64-11.2 9.9-22.33 11.85-36.3 6.12a31 31 0 0 1-8.1-5.4c-15.78-14.4-17.08-43.35-2.56-59a32.2 32.2 0 0 1 22.8-10.41c10.22-.38 16.92 2.81 24.29 9.62.6-9.1.09-28.76-.2-38.25m-14.34 88.85c5.7-1.3 9.4-3.55 12.67-8.69a23.8 23.8 0 0 0 2.95-18.14c-2.59-10.78-10.75-15.65-21.4-15.02-27.3 9.84-16.87 43.15 5.78 41.85M211.17 70.84c35.33-5.25 53.27 37.71 33.05 63.67a35.5 35.5 0 0 1-23.84 13.5c-11.04 1.34-17.4-1.83-25.85-8.39l.01 13.33c.04 7.22-.1 14.63-.17 21.86-6.44.58-14.12-.51-19.76.45-.12-4.87-.1-9.85-.07-14.73.16-29.58-.35-59.25.02-88.82 7.1.32 13.4.33 20.52.26-.42 2.37-.73 4.95-1.06 7.35 6.96-5.4 8.47-6.87 17.15-8.48m5.82 59.17c25.77-10.23 15.72-44.95-8.56-41.34a20 20 0 0 0-12.23 10.15 23.8 23.8 0 0 0-1.35 18.47c3.44 10.35 11.66 14.62 22.14 12.72M61.82 41.72c7.37-.1 13.71.32 21.37-.01-.34 9.73 1.06 102.7-.9 104.78l-2.33.05c-5.9-.2-12.27-.32-18.14.03q.24-21.37.01-42.76-19.67-.23-39.35-.14c-1.03 7.2.24 18.09.2 25.77-.04 4.07-.61 13.47-.1 16.79q-11.28.43-22.58.15c.25-4.52.23-9.78.15-14.34C-.42 102.08.9 71.62.12 41.7c7.23.25 14.7.57 21.9.06-.13 13.76.68 27.74.56 42.02 13.3.06 26.01-.19 39.4.2q.08-21.14-.16-42.27M293.23 70.4c5.84-.59 13.96.8 19.15 3.5 17.55 9.13 19.32 24.79 18.5 42.15-17.48.53-35.82-.3-53.52.05 1.48 5.71 3.16 10.22 8.54 13.58a18 18 0 0 0 13.59 2.13c5.94-1.48 8.63-5.08 11.63-9.84 4.73 1.13 9.27 1.96 14.04 2.87 1.7.3 3.2.47 4.8 1.14-.06 2.1-3.73 7.41-5.15 9.24-12.33 15.89-38.59 17.58-53.75 4.72a39.2 39.2 0 0 1-13.71-26.96c-1.82-22.75 12.9-40.9 35.88-42.58m-15.61 30.34 17.16-.02 16.73-.09c-3.1-8.68-6.51-12.99-16.31-13.72-9.55 1.15-13.96 4.86-17.58 13.83M611.9 69.44c17.26-2.04 34.37 13.53 35.92 30.22.45 4.9.2 10.58.13 15.52l-53.09-.37c1.27 4.55 2.12 7.5 5.56 11.13a17 17 0 0 0 11.9 5.39c6.57.16 11.13-3.09 15.7-7.24 4.03 1.75 8.38 3.93 12.37 5.82l5.57 2.52c-8.8 9.7-13.68 12.81-27.38 14.48-38.07 4.61-57.16-38.2-34.04-66.07 6.6-7.95 16.74-10.97 27.35-11.4M595.8 99.82l19.6-.1h13.9c-4.36-9.92-8.23-14.63-19.93-13.47-8.16 2.36-10.6 5.58-13.57 13.57M88.48 71.78c7.67.3 14.74.23 22.43.12a1210 1210 0 0 1 18.82 47.73c5.39-14.68 11.94-33.8 18.22-47.8q10.55.06 21.08.3c-5.92 16.09-13.03 32.4-19.48 48.4-2.47 5.24-5.4 13.13-7.65 18.66l-14.52 35.73c-6.84-.12-14.36.15-21.26.24l12.1-30.27c-9.1-23.86-21.42-49.73-29.74-73.11M557.01 70.86c7 .3 14.46.12 21.51.06-2.82 8.6-7.7 21.04-11.17 29.43q-8.85 22.56-17.39 45.24c-6.7-.21-14.21.01-21.14-.12a4140 4140 0 0 1-17.8-46.69c-3.44-9.02-7.58-18.72-10.52-27.82 5.92.19 12.15.04 18.1-.01.99-.03 1.97-.13 2.91.23 1.88.73 16.47 43.61 18.67 49.46a3252 3252 0 0 0 16.83-49.78M457.43 69.8c4.75-.3 7.44 0 12.05.83.13 6.36-.03 13.14-.07 19.53a46 46 0 0 0-7.21-.54c-14.5-.05-19.51 11.96-19.35 24.56.14 10.42.19 20.9.21 31.33-3.96-.29-10.32-.07-14.46-.05-2.1.13-3.32.39-5.27-.24-1.55-2.97-.81-65.97-.8-74.28 6.5-.16 13.85 0 20.45-.06l.09 8.62c4.31-5.75 7.35-8.2 14.36-9.7M475.62 70.64q10.22.11 20.45.07c-.04 7.54.23 73.59-.16 74.5q-10.16.06-20.3.5c.53-7.47.33-16.24.33-23.84z"/><circle cx="486.2" cy="50.34" r="11.82" fill="currentColor"/></svg>
